X:1
T:The Harvest Home
R:hornpipe
M:4/4
L:1/8
O:Trad. (30.9.2015/NS)
K:Dmaj
|: "D" DAFA      DAFA  |      defe      dcBA   | "A" eAfA gAfA |        (3efe (3dcB (3ABA (3GFE |
   "D" DAFA      DAFA  |      defe      dcBA   | "A" eAfA gece | [1 "D" d2f2 d2AF :| [2 "D"d2 f2 d2 cd|]
|: "A" eA~A2 "D" fA~A2 | "A7" gAfA "Em" eA ~A2 | "A" eAfA gAfA |    "Em"(3efe (3dcB "A"(3ABA (3GFE|
   "D" DAFA      DAFA  |      defe      dcBA   | "A" eAfA gece | [1 "D" d2f2 d2cd:|[2 "D" d2f2 d4|]

